; generated by SuperSlicer 2.3.57 on 2022-01-13 at 09:11:02 UTC

; 

; external perimeters extrusion width = 0.40mm
; perimeters extrusion width = 0.40mm
; infill extrusion width = 0.45mm
; solid infill extrusion width = 0.40mm
; top infill extrusion width = 0.40mm
; first layer extrusion width = 0.40mm

; object:{"name":"PCB_DIN_CLIP_V2","id":"PCB_DIN_CLIP_V2 id:0 copy 0","object_center":[124.453180,114.505086,0.000000],"boundingbox_center":[124.453180,114.505086,4.000000],"boundingbox_size":[62.207033,16.214501,8.000000]}
; object:{"name":"PCB_DIN_CLIP_V2","id":"PCB_DIN_CLIP_V2 id:1 copy 0","object_center":[125.546821,135.494915,0.000000],"boundingbox_center":[125.546821,135.494915,4.000000],"boundingbox_size":[62.207033,16.214501,8.000000]}
; plater:{"center":[125.000000,125.000001,0.000000],"boundingbox_center":[125.000000,125.000001,4.000000],"boundingbox_size":[63.300674,37.204329,8.000000]}

;TYPE:Custom
M140 S110; set bed temp
M190 S110; wait for bed temp
PRINT_START
M104 S230
M109 S230
M107
G21 ; set units to millimeters
G90 ; use absolute coordinates
M83 ; use relative distances for extrusion
; Filament gcode
;LAYER_CHANGE
;Z:0.2
;HEIGHT:0.2
G1 Z0.2 F12000
G1 E-0.8 F2100
G1 X100.241 Y104.848 F12000
G1 E0.8 F2100
;TYPE:Skirt
;WIDTH:0.4
G1 F1800
G1 X100.671 Y104.48 E0.01682
G1 X101.258 Y104.164 E0.01979
G1 X101.898 Y103.991 E0.01967
G1 X105.129 Y103.812 E0.09609
G1 X143.731 Y103.811 E1.14612
G1 X144.474 Y103.909 E0.02227
G1 X145.164 Y104.194 E0.02215
G1 X153.579 Y109.453 E0.29465
G1 X155.489 Y111.128 E0.07541
G1 X155.984 Y111.756 E0.02375
G1 X156.205 Y112.227 E0.01545
G1 X156.339 Y112.729 E0.01545
G1 X159.12 Y130.124 E0.52303
G1 X159.225 Y132.521 E0.07123
G1 X159.082 Y133.193 E0.02041
G1 X158.784 Y133.813 E0.02041
G1 X150.892 Y143.891 E0.38006
G1 X149.759 Y145.152 E0.05035
G1 X149.329 Y145.52 E0.01682
G1 X148.742 Y145.836 E0.01979
G1 X148.102 Y146.009 E0.01967
G1 X144.871 Y146.188 E0.09609
G1 X105.905 Y146.165 E1.15694
G1 X105.333 Y146.032 E0.01744
G1 X104.8 Y145.785 E0.01744
G1 X96.407 Y140.537 E0.2939
G1 X94.548 Y138.907 E0.07342
G1 X94.14 Y138.439 E0.01843
G1 X93.839 Y137.887 E0.01868
G1 X93.663 Y137.283 E0.01868
G1 X90.889 Y119.938 E0.52153
G1 X90.764 Y117.819 E0.06302
G1 X90.815 Y117.196 E0.01855
G1 X91.02 Y116.549 E0.02016
G1 X91.37 Y115.967 E0.02016
G1 X99.11 Y106.106 E0.37222
G1 X100.201 Y104.892 E0.04844
G1 X100.466 Y105.131 F12000
G1 F1800
G1 X100.494 Y105.1 E0.00124
G1 X100.885 Y104.766 E0.01528
G1 X101.405 Y104.489 E0.01748
G1 X101.975 Y104.341 E0.01748
G1 X105.141 Y104.168 E0.09414
G1 X143.73 Y104.168 E1.14576
G1 X144.384 Y104.255 E0.01957
G1 X144.996 Y104.509 E0.01968
G1 X153.39 Y109.757 E0.29394
G1 X155.24 Y111.384 E0.07313
G1 X155.683 Y111.948 E0.0213
G1 X155.873 Y112.358 E0.01341
G1 X155.988 Y112.795 E0.01341
G1 X158.767 Y130.18 E0.52275
G1 X158.871 Y132.47 E0.06806
G1 X158.746 Y133.073 E0.01829
G1 X158.479 Y133.628 E0.01829
G1 X150.616 Y143.665 E0.37857
G1 X149.506 Y144.9 E0.0493
G1 X149.115 Y145.234 E0.01528
G1 X148.595 Y145.511 E0.01748
G1 X148.025 Y145.659 E0.01748
G1 X144.859 Y145.832 E0.09414
G1 X105.952 Y145.811 E1.1552
G1 X105.443 Y145.692 E0.01551
G1 X104.974 Y145.473 E0.01539
G1 X96.6 Y140.237 E0.29323
G1 X94.789 Y138.643 E0.07162
G1 X94.426 Y138.225 E0.01644
G1 X94.165 Y137.742 E0.01632
G1 X94.014 Y137.217 E0.0162
G1 X91.241 Y119.878 E0.52135
G1 X91.121 Y117.813 E0.06143
G1 X91.166 Y117.261 E0.01644
G1 X91.347 Y116.693 E0.01771
G1 X91.655 Y116.182 E0.01771
G1 X99.384 Y106.335 E0.37169
G1 X100.426 Y105.175 E0.04628
G1 X100.691 Y105.414 F12000
G1 F1800
G1 X100.751 Y105.348 E0.00263
G1 X101.097 Y105.053 E0.01351
G1 X101.549 Y104.817 E0.01512
G1 X102.046 Y104.691 E0.01523
G1 X105.149 Y104.525 E0.09226
G1 X143.73 Y104.525 E1.14552
G1 X144.299 Y104.602 E0.01706
G1 X144.826 Y104.823 E0.01695
G1 X153.198 Y110.058 E0.29318
G1 X154.989 Y111.638 E0.0709
G1 X155.379 Y112.135 E0.01877
G1 X155.636 Y112.856 E0.02273
G1 X158.414 Y130.235 E0.52255
G1 X158.517 Y132.423 E0.06505
G1 X158.409 Y132.954 E0.01609
G1 X158.174 Y133.443 E0.01609
G1 X150.339 Y143.44 E0.37713
G1 X149.249 Y144.652 E0.04838
G1 X148.903 Y144.947 E0.01351
G1 X148.451 Y145.183 E0.01512
G1 X147.954 Y145.309 E0.01523
G1 X144.851 Y145.475 E0.09226
G1 X105.997 Y145.457 E1.15362
G1 X105.561 Y145.355 E0.01329
G1 X105.152 Y145.164 E0.0134
G1 X96.793 Y139.936 E0.29274
G1 X95.033 Y138.382 E0.06972
G1 X94.714 Y138.013 E0.01448
G1 X94.493 Y137.599 E0.01394
G1 X94.365 Y137.151 E0.01383
G1 X91.594 Y119.823 E0.52103
G1 X91.478 Y117.806 E0.05998
G1 X91.517 Y117.327 E0.01426
G1 X91.673 Y116.839 E0.01523
G1 X91.938 Y116.4 E0.01523
G1 X99.661 Y106.56 E0.3714
G1 X100.651 Y105.458 E0.04398
; INIT printing object PCB_DIN_CLIP_V2 id:0 copy 0
G1 E-0.8 F2100
; printing object PCB_DIN_CLIP_V2 id:0 copy 0
G1 X104.61 Y114.086 F12000
G1 E0.8 F2100
;TYPE:Internal perimeter
G1 F1800
G1 X104.656 Y114.984 E0.0267
G1 X103.758 Y115.031 E0.0267
G1 X104.569 Y114.131 E0.03598
G1 E-0.8 F2100
G1 X104.271 Y108.382 F12000
G1 E0.8 F2100
G1 F1800
G1 X104.206 Y108.385 E0.00193
G1 X104.187 Y108.028 E0.01062
G1 X104.714 Y108.001 E0.01568
G1 X105.09 Y108.339 E0.01501
G1 X104.331 Y108.379 E0.02258
G1 X104.688 Y108.718 F12000
G1 F1800
G1 X105.236 Y119.269 E0.3137
G1 X105.798 Y119.775 E0.02245
G1 X104.679 Y119.833 E0.03325
G1 X104.447 Y115.353 E0.1332
G1 X102.916 Y115.432 E0.04551
G1 X104.144 Y114.07 E0.05445
G1 X103.981 Y110.936 E0.09317
G1 X103.812 Y107.69 E0.09652
G1 X104.844 Y107.636 E0.03067
G1 X105.058 Y107.83 E0.00858
G1 X105.97 Y108.651 E0.03642
G1 X104.748 Y108.715 E0.03631
G1 E-0.8 F2100
G1 X104.109 Y115.728 F12000
G1 E0.8 F2100
G1 F1800
G1 X97.375 Y116.078 E0.2002
G1 X96.008 Y117.595 E0.06062
G1 X96.124 Y119.834 E0.06659
G1 X104.3 Y119.41 E0.24307
G1 X104.112 Y115.788 E0.10768
G1 X103.771 Y116.103 F12000
;TYPE:External perimeter
G1 F1800
G1 X97.541 Y116.427 E0.18521
G1 X96.372 Y117.724 E0.05184
G1 X96.462 Y119.459 E0.0516
G1 X103.925 Y119.072 E0.22187
G1 X103.774 Y116.163 E0.08647
G1 X103.75 Y115.704 F12000
G1 E-0.8 F2100
G1 X95.304 Y117.81 F12000
G1 E0.8 F2100
;TYPE:Internal perimeter
G1 F1800
G1 X95.379 Y119.249 E0.04278
G1 X94.989 Y118.898 E0.01559
G1 X94.953 Y118.2 E0.02073
G1 X95.264 Y117.855 E0.01381
G1 X95.644 Y117.465 F12000
G1 F1800
G1 X95.78 Y120.092 E0.07809
G1 X94.64 Y119.064 E0.04558
G1 X94.588 Y118.071 E0.02952
G1 X96.755 Y115.667 E0.0961
G1 X97.29 Y115.639 E0.01589
G1 X95.684 Y117.421 E0.07121
G1 X94.224 Y117.942 F12000
G1 F1800
G1 X96.589 Y115.318 E0.10489
G1 X102.831 Y114.994 E0.18557
G1 X103.779 Y113.941 E0.04208
G1 X103.624 Y110.955 E0.08878
G1 X103.469 Y107.969 E0.08878
G1 X102.82 Y107.384 E0.02594
G1 X104.973 Y107.272 E0.06401
G1 X105.297 Y107.565 E0.01297
G1 X106.074 Y108.264 E0.03103
G1 X106.112 Y109.001 E0.02191
G1 X105.063 Y109.056 E0.03118
G1 X105.585 Y119.103 E0.2987
G1 X106.677 Y120.087 E0.04365
G1 X95.865 Y120.649 E0.32148
G1 X94.291 Y119.23 E0.0629
G1 X94.227 Y118.002 E0.03652
G1 E-0.8 F2100
G1 X116.684 Y120.483 F12000
G1 E0.8 F2100
G1 F1800
G1 X150.403 Y118.731 E1.0025
G1 X145.03 Y113.888 E0.21478
G1 X143.285 Y113.979 E0.05188
G1 X143.203 Y112.402 E0.0469
G1 X141.711 Y111.057 E0.05964
G1 X136.885 Y111.308 E0.14348
G1 X134.044 Y114.459 E0.12597
G1 X118.536 Y115.265 E0.4611
G1 X116.705 Y120.426 E0.16261
G1 X117.2 Y120.098 F12000
G1 F1800
G1 X149.524 Y118.419 E0.96104
G1 X144.901 Y114.253 E0.18479
G1 X143.235 Y114.339 E0.04952
G1 X143.103 Y114.22 E0.00529
G1 X142.932 Y114.066 E0.00683
G1 X142.854 Y112.568 E0.04454
G1 X141.582 Y111.421 E0.05086
G1 X137.051 Y111.656 E0.1347
G1 X134.211 Y114.808 E0.12597
G1 X118.792 Y115.609 E0.45841
G1 X117.22 Y120.042 E0.13966
G1 X117.715 Y119.714 F12000
G1 F1800
G1 X148.644 Y118.107 E0.91957
G1 X144.772 Y114.617 E0.1548
G1 X143.106 Y114.704 E0.04952
G1 X142.864 Y114.485 E0.00968
G1 X142.583 Y114.232 E0.01123
G1 X142.505 Y112.734 E0.04454
G1 X141.452 Y111.785 E0.04208
G1 X137.217 Y112.005 E0.12592
G1 X134.377 Y115.157 E0.12597
G1 X119.049 Y115.953 E0.45571
G1 X117.735 Y119.658 E0.1167
G1 X118.23 Y119.33 F12000
;TYPE:External perimeter
G1 F1800
G1 X147.765 Y117.796 E0.87811
G1 X144.642 Y114.981 E0.12481
G1 X142.977 Y115.068 E0.04952
G1 X142.625 Y114.75 E0.01407
G1 X142.234 Y114.398 E0.01562
G1 X142.156 Y112.9 E0.04454
G1 X141.323 Y112.15 E0.03329
G1 X137.384 Y112.354 E0.11713
G1 X134.543 Y115.506 E0.12597
G1 X119.306 Y116.297 E0.45302
G1 X118.25 Y119.273 E0.09375
G1 X118.199 Y119.729 F12000
G1 E-0.8 F2100
G1 X113.546 Y120.409 F12000
G1 E0.8 F2100
;TYPE:Internal perimeter
G1 F1800
G1 X114.504 Y117.709 E0.08507
G1 X112.198 Y115.631 E0.09216
G1 X109.282 Y113.003 E0.11655
G1 X108.204 Y113.059 E0.03205
G1 X108.171 Y112.427 E0.01878
G1 X110.446 Y112.309 E0.06763
G1 X113.597 Y115.15 E0.12597
G1 X133.872 Y114.096 E0.60278
G1 X136.712 Y110.945 E0.12597
G1 X138.912 Y110.83 E0.0654
G1 X142.624 Y110.638 E0.11038
G1 X142.49 Y108.041 E0.0772
G1 X143.346 Y107.997 E0.02546
G1 X143.563 Y112.171 E0.1241
G1 X145.055 Y113.515 E0.05964
G1 X151.546 Y113.178 E0.19299
G1 X152.245 Y113.808 E0.02794
G1 X152.515 Y118.993 E0.15416
G1 X115.158 Y120.934 E1.11067
G1 X113.703 Y121.009 E0.04324
G1 X113.065 Y120.434 E0.02551
G1 X113.486 Y120.412 E0.01251
G1 X113.289 Y120.065 F12000
G1 F1800
G1 X114.087 Y117.815 E0.0709
G1 X111.959 Y115.896 E0.08508
G1 X109.153 Y113.367 E0.11216
G1 X108.154 Y113.419 E0.02969
G1 X107.851 Y113.146 E0.01213
G1 X107.811 Y112.378 E0.02284
G1 X108.084 Y112.074 E0.01213
G1 X110.575 Y111.945 E0.07405
G1 X113.726 Y114.785 E0.12597
G1 X133.705 Y113.747 E0.594
G1 X136.546 Y110.596 E0.12597
G1 X138.893 Y110.474 E0.06979
G1 X142.249 Y110.3 E0.09978
G1 X142.114 Y107.703 E0.0772
G1 X143.396 Y107.636 E0.03809
G1 X143.699 Y107.91 E0.01213
G1 X143.912 Y112.004 E0.12173
G1 X145.184 Y113.151 E0.05086
G1 X151.675 Y112.814 E0.19299
G1 X152.594 Y113.642 E0.03672
G1 X152.89 Y119.331 E0.16916
G1 X115.176 Y121.29 E1.12127
G1 X113.574 Y121.374 E0.04764
G1 X112.185 Y120.122 E0.05551
G1 X113.229 Y120.068 E0.03103
G1 X113.032 Y119.721 F12000
G1 F1800
G1 X113.671 Y117.92 E0.05673
G1 X111.72 Y116.161 E0.07799
G1 X109.023 Y113.732 E0.10777
G1 X108.025 Y113.783 E0.02969
G1 X107.502 Y113.312 E0.02091
G1 X107.451 Y112.336 E0.02903
G1 X107.446 Y112.248 E0.0026
G1 X107.918 Y111.725 E0.02091
G1 X110.704 Y111.581 E0.08284
G1 X113.856 Y114.421 E0.12597
G1 X133.539 Y113.398 E0.58522
G1 X136.379 Y110.247 E0.12597
G1 X138.875 Y110.117 E0.07418
G1 X141.874 Y109.961 E0.08918
G1 X141.739 Y107.365 E0.0772
G1 X143.525 Y107.272 E0.05309
G1 X144.048 Y107.744 E0.02091
G1 X144.261 Y111.838 E0.12173
G1 X145.313 Y112.787 E0.04208
G1 X151.805 Y112.45 E0.19299
G1 X152.943 Y113.476 E0.04551
G1 X153.265 Y119.669 E0.18415
G1 X115.195 Y121.647 E1.13187
G1 X113.445 Y121.738 E0.05203
G1 X111.305 Y119.81 E0.08551
G1 X112.972 Y119.724 E0.04955
G1 X112.775 Y119.376 F12000
;TYPE:External perimeter
G1 F1800
G1 X113.255 Y118.026 E0.04256
G1 X111.481 Y116.427 E0.07091
G1 X108.894 Y114.096 E0.10338
G1 X107.896 Y114.148 E0.02969
G1 X107.153 Y113.478 E0.02969
G1 X107.094 Y112.354 E0.03342
G1 X107.082 Y112.119 E0.00699
G1 X107.752 Y111.376 E0.02969
G1 X110.833 Y111.216 E0.09162
G1 X113.985 Y114.057 E0.12597
G1 X133.373 Y113.05 E0.57643
G1 X136.213 Y109.898 E0.12597
G1 X138.856 Y109.761 E0.07858
G1 X141.499 Y109.623 E0.07858
G1 X141.39 Y107.526 E0.06235
G1 X140.598 Y107.567 E0.02354
G1 X140.073 Y107.094 E0.02099
G1 X143.654 Y106.908 E0.10647
G1 X144.34 Y107.526 E0.02742
G1 X144.397 Y107.577 E0.00227
G1 X144.609 Y111.672 E0.12173
G1 X145.442 Y112.423 E0.03329
G1 X151.934 Y112.085 E0.19299
G1 X153.292 Y113.309 E0.05429
G1 X153.64 Y120.007 E0.19914
G1 X115.213 Y122.004 E1.14248
G1 X113.316 Y122.102 E0.05642
G1 X111.215 Y120.209 E0.08398
G1 X95.735 Y121.013 E0.46022
G1 X93.942 Y119.397 E0.07168
G1 X93.86 Y117.813 E0.04708
G1 X96.423 Y114.969 E0.11367
G1 X102.664 Y114.645 E0.18557
G1 X103.415 Y113.812 E0.03329
G1 X103.268 Y110.973 E0.08439
G1 X103.12 Y108.135 E0.08439
G1 X102.318 Y107.413 E0.03204
G1 X102.318 Y107.413 F12000
;TYPE:Thin wall
;WIDTH:0.0628168
G1 F1800
G1 X102.297 Y107.421 E0.00005
;WIDTH:0.119144
G1 X102.286 Y107.425 E0.00008
;WIDTH:0.160716
G1 X102.275 Y107.429 E0.00012
;WIDTH:0.202288
G1 X102.264 Y107.433 E0.00016
;WIDTH:0.24386
G1 X102.253 Y107.437 E0.0002
;WIDTH:0.285432
G1 X102.242 Y107.441 E0.00024
;WIDTH:0.327004
G1 X102.231 Y107.445 E0.00028
;WIDTH:0.368576
G1 X102.22 Y107.449 E0.00032
;WIDTH:0.410148
G1 X102.209 Y107.454 E0.00036
;WIDTH:0.45172
G1 X102.198 Y107.458 E0.0004
;WIDTH:0.493292
G1 X102.17 Y107.468 E0.00113
G1 X102.069 Y107.584 E0.00582
;WIDTH:0.541876
G1 X101.968 Y107.7 E0.00644
G1 X101.664 Y108.037 E0.01898
G1 X101.463 Y108.326 E0.01473
G1 X101.457 Y108.335 E0.00045
;WIDTH:0.499719
G1 X101.451 Y108.344 E0.00041
;WIDTH:0.457563
G1 X101.445 Y108.353 E0.00038
;WIDTH:0.415407
G1 X101.439 Y108.361 E0.00034
;WIDTH:0.37325
G1 X101.433 Y108.37 E0.0003
;WIDTH:0.331094
G1 X101.427 Y108.379 E0.00026
;WIDTH:0.288938
G1 X101.421 Y108.388 E0.00022
;WIDTH:0.246781
G1 X101.414 Y108.397 E0.00019
;WIDTH:0.204625
G1 X101.408 Y108.406 E0.00015
;WIDTH:0.162469
G1 X101.402 Y108.414 E0.00011
;WIDTH:0.120313
G1 X101.396 Y108.423 E0.00007
;WIDTH:0.0781563
G1 X101.384 Y108.441 E0.00007
;WIDTH:0.00868403
G1 X101.396 Y108.423 E0.00001
;WIDTH:0.0133681
G1 X101.402 Y108.414 E0.00001
;WIDTH:0.0180521
G1 X101.408 Y108.406 E0.00001
;WIDTH:0.0227361
G1 X101.414 Y108.397 E0.00002
;WIDTH:0.0274202
G1 X101.421 Y108.388 E0.00002
;WIDTH:0.0321042
G1 X101.427 Y108.379 E0.00002
;WIDTH:0.0367882
G1 X101.433 Y108.37 E0.00003
;WIDTH:0.0414723
G1 X101.439 Y108.361 E0.00003
;WIDTH:0.0461563
G1 X101.445 Y108.353 E0.00004
;WIDTH:0.0508403
G1 X101.451 Y108.344 E0.00004
;WIDTH:0.0555244
G1 X101.457 Y108.335 E0.00005
;WIDTH:0.0602084
G1 X101.463 Y108.326 E0.00005
G1 X101.664 Y108.037 E0.00164
G1 X101.968 Y107.7 E0.00211
G1 X102.069 Y107.584 E0.00072
;WIDTH:0.0548102
G1 X102.17 Y107.468 E0.00065
G1 X102.198 Y107.458 E0.00013
;WIDTH:0.0501911
G1 X102.209 Y107.454 E0.00004
;WIDTH:0.045572
G1 X102.22 Y107.449 E0.00004
;WIDTH:0.0409529
G1 X102.231 Y107.445 E0.00004
;WIDTH:0.0363338
G1 X102.242 Y107.441 E0.00003
;WIDTH:0.0317147
G1 X102.253 Y107.437 E0.00003
;WIDTH:0.0270955
G1 X102.264 Y107.433 E0.00002
;WIDTH:0.0224764
G1 X102.275 Y107.429 E0.00002
;WIDTH:0.0178573
G1 X102.286 Y107.425 E0.00001
;WIDTH:0.0132382
G1 X102.297 Y107.421 E0.00001
;WIDTH:0.00697965
G1 X102.318 Y107.413 E0.00001
G1 X102.318 Y107.413 F12000
;TYPE:External perimeter
;WIDTH:0.4
G1 F1800
G1 X102.193 Y107.299 E0.00503
G1 X102.42 Y107.047 E0.01008
G1 X105.102 Y106.908 E0.07974
G1 X105.536 Y107.299 E0.01736
G1 X106.423 Y108.098 E0.03543
G1 X106.487 Y109.339 E0.0369
G1 X105.439 Y109.394 E0.03118
G1 X105.934 Y118.936 E0.28371
G1 X106.767 Y119.687 E0.03329
G1 X112.715 Y119.38 E0.17685
G1 X113.167 Y119.46 F12000
G1 X111.139 Y119.881
;TYPE:Gap fill
;WIDTH:0.347642
G1 F1800
G1 X111.053 Y119.874 E0.00219
;WIDTH:0.386855
G1 X110.967 Y119.868 E0.00247
;WIDTH:0.426068
G1 X110.88 Y119.861 E0.00275
;WIDTH:0.466152
G1 X110.794 Y119.855 E0.00304
G1 X107.188 Y120.042 E0.12708
G1 X107.102 Y120.035 E0.00304
;WIDTH:0.426912
G1 X107.016 Y120.029 E0.00276
;WIDTH:0.387672
G1 X106.93 Y120.022 E0.00248
;WIDTH:0.348431
G1 X106.843 Y120.016 E0.0022
G1 X105.052 Y119.649 F12000
;WIDTH:0.547081
G1 F1800
G1 X105.039 Y119.617 E0.00144
;WIDTH:0.503013
G1 X105.027 Y119.585 E0.00132
;WIDTH:0.458944
G1 X105.015 Y119.553 E0.00119
;WIDTH:0.414876
G1 X105.002 Y119.521 E0.00107
;WIDTH:0.370807
G1 X104.99 Y119.488 E0.00094
G1 X104.983 Y119.473 E0.00047
;WIDTH:0.344205
G1 X104.975 Y119.457 E0.00044
G1 X104.961 Y119.404 E0.00136
;WIDTH:0.300096
G1 X104.948 Y119.352 E0.00116
G1 X104.842 Y117.313 E0.04367
G1 X104.736 Y115.273 E0.04367
G1 X104.732 Y115.209 E0.00137
G1 X104.729 Y115.145 E0.00137
G1 X104.498 Y113.965 F12000
;WIDTH:0.399007
G1 F1800
G1 X104.506 Y113.864 E0.00298
;WIDTH:0.444784
G1 X104.513 Y113.764 E0.00337
;WIDTH:0.49056
G1 X104.521 Y113.663 E0.00375
;WIDTH:0.536328
G1 X104.529 Y113.563 E0.00414
G1 X104.405 Y111.178 E0.09798
G1 X104.281 Y108.793 E0.09798
G1 X104.268 Y108.546 E0.01012
G1 E-0.8 F2100
G1 X108.351 Y112.735 F12000
G1 E0.8 F2100
